X:1
T:Title
%%score { ( 1 3 ) | ( 2 4 ) }
L:1/8
Q:1/4=100
M:4/4
K:C
V:1 treble nm="Grand Piano"
V:3 treble 
V:2 bass 
V:4 bass 
V:1
 [EG]2 [FA][FA] [EG]2 [CE][EG] | [EG][DF][DF][^CE] [DF]4 | D2 DE FGAB | c2 d2 B3 G | c2 c2 z4 | %5
w: William~J.~Kirkpatrick * * * * *|||||
 BAcA [EG]3 [EG] | [^CEA]2 [CE]2 [EG][DF][DF][CE] | [A,DF]2 [B,DG]2 [G,CE]3 [G,EG] | c2 c2 z4 | %9
w: ||||
 B4 z4 |[M:19/16] G-<Gc-<c[Fd]/-[Fd]/-[Fd]/-[Fd]/-[Fd]/-[Fd]-<[Fd][Ec] |[M:4/4] [Ec]8 |] %12
w: |||
V:2
 [C,C]2 [F,C][F,C] [C,C]2 [C,G,]2 | [G,,G,][G,,G,][G,,G,][G,,G,] [G,,G,]4 | %2
 [G,B,]2 [G,B,][K:treble][G,C] [G,B,D][G,CE][G,B,F][G,DF] | [A,CE]2 [F,A,F]2 [G,D]3 G, | %4
 .[C,G,]2 .[C,B,]2 [C,G,]3 [E,C] | [F,CG][F,CF][F,A,F][F,CF] [C,C]3 [C,C] | %6
 A,,2 [A,,A,]2 [A,,A,][A,,A,][A,,A,][A,,A,] | D,2 G,,2 C,3 C, | .[E,C]2 z2 z4 | %9
 .D2 z [E,^G,D] [F,A,C]4 | %10
[M:19/16] [G,CE]/-[G,CE]/-[G,CE]/-[G,CE]/-[G,CE]-<[G,CE][G,B,]/-[G,B,]/-[G,B,]/-[G,B,]/-[G,B,]/-[G,B,]-<[G,B,][C,G,] | %11
[M:4/4] C,8 |] %12
V:3
 x8 | x8 | x8 | x8 | E[CA]G[A,F] [Ec]3 G | x8 | x8 | x8 | z DE[A,F] [Ec]4 | z FEB A4 | %10
[M:19/16] x19/2 |[M:4/4] x8 |] %12
V:4
 x8 | x8 | x3[K:treble] x5 | x8 | x8 | x8 | x8 | x8 | C,-[C,F,] .[C,G,]2 [C,G,]4 | [E,^G,]4 z4 | %10
[M:19/16] x19/2 |[M:4/4] x8 |] %12

